X:340
T:French Hornpipe,A. RH.340
R:rant
S:Rev.R.Harrison’s MS,c1815,Cumbria
O:England
A:Temple Sowerby,Cumbria
Z:vmp.Simon Wilson. Review PJH, 2008.
M:2/4
L:1/16
Q:1/4=100
K:D
FG|A2d2 d2cd|e2A2 A2fe|d2f2 edcd|e2a2 a2FG|\
A2d2 d2cd|e2A2 A2fe|d2f2 abag|f2d2 d2:|!
|:fg|a2A2 Adfa|g2G2 Gceg|f2F2 FAdf|eaga A2fg|\
a2d’2 bc’d’b|a2f2 bagf|edcB ABcA|d2d2d2:|

